replication/atom_indices/EAS_21_atomIndicesCap.svg

<?xml version='1.0' encoding='iso-8859-1'?>
<svg version='1.1' baseProfile='full'
              xmlns='http://www.w3.org/2000/svg'
                      xmlns:rdkit='http://www.rdkit.org/xml'
                      xmlns:xlink='http://www.w3.org/1999/xlink'
                  xml:space='preserve'
width='800px' height='200px' viewBox='0 0 800 200'>
<!-- END OF HEADER -->
<rect style='opacity:1.0;fill:#FFFFFF;stroke:none' width='800' height='200' x='0' y='0'> </rect>
<path class='bond-0' d='M 190.909,100 L 177.124,81.0262' style='fill:none;fill-rule:evenodd;stroke:#000000;stroke-width:2px;stroke-linecap:butt;stroke-linejoin:miter;stroke-opacity:1' />
<path class='bond-0' d='M 177.124,81.0262 L 163.338,62.0523' style='fill:none;fill-rule:evenodd;stroke:#CCCC00;stroke-width:2px;stroke-linecap:butt;stroke-linejoin:miter;stroke-opacity:1' />
<path class='bond-1' d='M 190.909,100 L 163.338,137.948' style='fill:none;fill-rule:evenodd;stroke:#000000;stroke-width:2px;stroke-linecap:butt;stroke-linejoin:miter;stroke-opacity:1' />
<path class='bond-1' d='M 177.215,98.7473 L 157.915,125.311' style='fill:none;fill-rule:evenodd;stroke:#000000;stroke-width:2px;stroke-linecap:butt;stroke-linejoin:miter;stroke-opacity:1' />
<path class='bond-2' d='M 137.793,141.818 L 118.392,135.514' style='fill:none;fill-rule:evenodd;stroke:#000000;stroke-width:2px;stroke-linecap:butt;stroke-linejoin:miter;stroke-opacity:1' />
<path class='bond-3' d='M 81.6081,135.514 L 72.2385,138.558' style='fill:none;fill-rule:evenodd;stroke:#000000;stroke-width:2px;stroke-linecap:butt;stroke-linejoin:miter;stroke-opacity:1' />
<path class='bond-3' d='M 72.2385,138.558 L 62.8689,141.603' style='fill:none;fill-rule:evenodd;stroke:#FF0000;stroke-width:2px;stroke-linecap:butt;stroke-linejoin:miter;stroke-opacity:1' />
<path class='bond-4' d='M 100,119.692 L 100,80.3079' style='fill:none;fill-rule:evenodd;stroke:#000000;stroke-width:2px;stroke-linecap:butt;stroke-linejoin:miter;stroke-opacity:1' />
<path class='bond-4' d='M 111.815,113.784 L 111.815,86.2155' style='fill:none;fill-rule:evenodd;stroke:#000000;stroke-width:2px;stroke-linecap:butt;stroke-linejoin:miter;stroke-opacity:1' />
<path class='bond-5' d='M 118.392,64.486 L 128.418,61.2284' style='fill:none;fill-rule:evenodd;stroke:#000000;stroke-width:2px;stroke-linecap:butt;stroke-linejoin:miter;stroke-opacity:1' />
<path class='bond-5' d='M 128.418,61.2284 L 138.443,57.9709' style='fill:none;fill-rule:evenodd;stroke:#CCCC00;stroke-width:2px;stroke-linecap:butt;stroke-linejoin:miter;stroke-opacity:1' />
<path class='bond-6' d='M 81.6081,64.486 L 62.207,58.1822' style='fill:none;fill-rule:evenodd;stroke:#000000;stroke-width:2px;stroke-linecap:butt;stroke-linejoin:miter;stroke-opacity:1' />
<path class='bond-7' d='M 36.6615,62.0523 L 16.2445,90.1539' style='fill:none;fill-rule:evenodd;stroke:#000000;stroke-width:2px;stroke-linecap:butt;stroke-linejoin:miter;stroke-opacity:1' />
<path class='bond-7' d='M 43.1577,73.2124 L 28.8658,92.8835' style='fill:none;fill-rule:evenodd;stroke:#000000;stroke-width:2px;stroke-linecap:butt;stroke-linejoin:miter;stroke-opacity:1' />
<path class='bond-8' d='M 16.2445,109.846 L 26.453,123.897' style='fill:none;fill-rule:evenodd;stroke:#000000;stroke-width:2px;stroke-linecap:butt;stroke-linejoin:miter;stroke-opacity:1' />
<path class='bond-8' d='M 26.453,123.897 L 36.6615,137.948' style='fill:none;fill-rule:evenodd;stroke:#FF0000;stroke-width:2px;stroke-linecap:butt;stroke-linejoin:miter;stroke-opacity:1' />
<text x='137.793' y='157.64' style='font-size:19px;font-style:normal;font-weight:normal;fill-opacity:1;stroke:none;font-family:sans-serif;text-anchor:start;fill:#000000' ><tspan>C:1</tspan></text>
<text x='81.6081' y='139.384' style='font-size:19px;font-style:normal;font-weight:normal;fill-opacity:1;stroke:none;font-family:sans-serif;text-anchor:start;fill:#000000' ><tspan>C:2</tspan></text>
<text x='81.6081' y='80.3079' style='font-size:19px;font-style:normal;font-weight:normal;fill-opacity:1;stroke:none;font-family:sans-serif;text-anchor:start;fill:#000000' ><tspan>C:3</tspan></text>
<text x='138.443' y='62.0523' style='font-size:19px;font-style:normal;font-weight:normal;fill-opacity:1;stroke:none;font-family:sans-serif;text-anchor:start;fill:#CCCC00' ><tspan>S:4</tspan></text>
<text x='25.4232' y='62.0523' style='font-size:19px;font-style:normal;font-weight:normal;fill-opacity:1;stroke:none;font-family:sans-serif;text-anchor:start;fill:#000000' ><tspan>C:5</tspan></text>
<text x='-9.30099' y='109.846' style='font-size:19px;font-style:normal;font-weight:normal;fill-opacity:1;stroke:none;font-family:sans-serif;text-anchor:start;fill:#000000' ><tspan>C:6</tspan></text>
<text x='24.7613' y='157.64' style='font-size:19px;font-style:normal;font-weight:normal;fill-opacity:1;stroke:none;font-family:sans-serif;text-anchor:start;fill:#FF0000' ><tspan>O:7</tspan></text>
<text x='70.3745' y='194' style='font-size:12px;font-style:normal;font-weight:normal;fill-opacity:1;stroke:none;font-family:sans-serif;text-anchor:start;fill:#000000' ><tspan>comp471</tspan></text>
</svg>

<?xml version="1.0" encoding="UTF-8"?>
<svg baseProfile="full" version="1.1" viewBox="0 0 800 200" xml:space="preserve" xmlns="http://www.w3.org/2000/svg">

 <!-- END OF HEADER -->
<rect width="800" height="200" fill="#fff"> </rect>
<path class="bond-0" d="m190.91 100-13.785-18.974" fill="none" stroke="#000" stroke-width="2px"/>
<path class="bond-0" d="m177.12 81.026-13.786-18.974" fill="none" stroke="#cc0" stroke-width="2px"/>
<path class="bond-1" d="m190.91 100-27.571 37.948" fill="none" stroke="#000" stroke-width="2px"/>
<path class="bond-1" d="m177.22 98.747-19.3 26.564" fill="none" stroke="#000" stroke-width="2px"/>
<path class="bond-2" d="m137.79 141.82-19.401-6.304" fill="none" stroke="#000" stroke-width="2px"/>
<path class="bond-3" d="m81.608 135.51-9.3696 3.044" fill="none" stroke="#000" stroke-width="2px"/>
<path class="bond-3" d="m72.238 138.56-9.3696 3.045" fill="none" stroke="#f00" stroke-width="2px"/>
<path class="bond-4" d="m100 119.69v-39.384" fill="none" stroke="#000" stroke-width="2px"/>
<path class="bond-4" d="m111.82 113.78v-27.568" fill="none" stroke="#000" stroke-width="2px"/>
<path class="bond-5" d="m118.39 64.486 10.026-3.2576" fill="none" stroke="#000" stroke-width="2px"/>
<path class="bond-5" d="m128.42 61.228 10.025-3.2575" fill="none" stroke="#cc0" stroke-width="2px"/>
<path class="bond-6" d="m81.608 64.486-19.401-6.3038" fill="none" stroke="#000" stroke-width="2px"/>
<path class="bond-7" d="m36.662 62.052-20.417 28.102" fill="none" stroke="#000" stroke-width="2px"/>
<path class="bond-7" d="m43.158 73.212-14.292 19.671" fill="none" stroke="#000" stroke-width="2px"/>
<path class="bond-8" d="m16.244 109.85 10.208 14.051" fill="none" stroke="#000" stroke-width="2px"/>
<path class="bond-8" d="m26.453 123.9 10.208 14.051" fill="none" stroke="#f00" stroke-width="2px"/>
<text x="137.793" y="157.64" fill="#000000" font-family="sans-serif" font-size="19px"><tspan>C:1</tspan></text>
<text x="81.6081" y="139.384" fill="#000000" font-family="sans-serif" font-size="19px"><tspan>C:2</tspan></text>
<text x="81.6081" y="80.3079" fill="#000000" font-family="sans-serif" font-size="19px"><tspan>C:3</tspan></text>
<text x="138.443" y="62.0523" fill="#CCCC00" font-family="sans-serif" font-size="19px"><tspan>S:4</tspan></text>
<text x="25.4232" y="62.0523" fill="#000000" font-family="sans-serif" font-size="19px"><tspan>C:5</tspan></text>
<text x="-9.30099" y="109.846" fill="#000000" font-family="sans-serif" font-size="19px"><tspan>C:6</tspan></text>
<text x="24.7613" y="157.64" fill="#FF0000" font-family="sans-serif" font-size="19px"><tspan>O:7</tspan></text>
<text x="70.3745" y="194" fill="#000000" font-family="sans-serif" font-size="12px"><tspan>comp471</tspan></text>
</svg>
